icons/desktop-download-24.svg

<svg width="24" height="24" viewBox="0 0 24 24" xmlns="http://www.w3.org/2000/svg">
  <path d="M11.25 9.3314V0.749817C11.25 0.335603 11.5858 -0.000183105 12 -0.000183105C12.4142 -0.000183105 12.75 0.335603 12.75 0.749817V9.33139L14.6989 7.2201C14.9798 6.91573 15.4543 6.89675 15.7587 7.17771C16.0631 7.45866 16.0821 7.93316 15.8011 8.23752L12.5511 11.7583C12.4091 11.9121 12.2093 11.9996 12 11.9996C11.7907 11.9996 11.5909 11.9121 11.4489 11.7583L8.1989 8.23752C7.91794 7.93316 7.93692 7.45866 8.24129 7.17771C8.54565 6.89676 9.02014 6.91573 9.3011 7.2201L11.25 9.3314Z"/>
  <path fill-rule="evenodd" clip-rule="evenodd" d="M2.5 3.74999C2.5 3.61191 2.61193 3.49998 2.75 3.49998H8.25C8.66421 3.49998 9 3.1642 9 2.74998C9 2.33577 8.66421 1.99998 8.25 1.99998H2.75C1.7835 1.99998 1 2.78349 1 3.74999V15.25C1 16.2165 1.7835 17 2.75 17H8.95352C8.78282 18.375 8.14891 19.6521 7.18482 20.7568C6.99144 20.9784 6.94541 21.2926 7.06711 21.5603C7.18882 21.8281 7.45578 22 7.74989 22H16.2499C16.544 22 16.811 21.8281 16.9327 21.5603C17.0544 21.2926 17.0083 20.9784 16.815 20.7568C15.8509 19.6521 15.217 18.375 15.0463 17H21.25C22.2165 17 23 16.2165 23 15.25V3.74998C23 2.78349 22.2165 1.99998 21.25 1.99998H15.75C15.3358 1.99998 15 2.33577 15 2.74998C15 3.1642 15.3358 3.49998 15.75 3.49998H21.25C21.3881 3.49998 21.5 3.61191 21.5 3.74998V15.25C21.5 15.3881 21.3881 15.5 21.25 15.5H2.75C2.61193 15.5 2.5 15.3881 2.5 15.25V3.74999ZM10.4629 17C10.3373 18.2662 9.89885 19.445 9.23971 20.5H14.7601C14.1009 19.445 13.6624 18.2662 13.5369 17H10.4629Z"/>
</svg>

<svg xmlns="http://www.w3.org/2000/svg" width="24" height="24" viewBox="0 0 24 24"><path d="M11.25 9.331V.75a.75.75 0 011.5 0v8.58l1.949-2.11A.75.75 0 1115.8 8.237l-3.25 3.52a.75.75 0 01-1.102 0l-3.25-3.52A.75.75 0 119.3 7.22l1.949 2.111z"/><path fill-rule="evenodd" d="M2.5 3.75a.25.25 0 01.25-.25h5.5a.75.75 0 100-1.5h-5.5A1.75 1.75 0 001 3.75v11.5c0 .966.784 1.75 1.75 1.75h6.204c-.171 1.375-.805 2.652-1.77 3.757A.75.75 0 007.75 22h8.5a.75.75 0 00.565-1.243c-.964-1.105-1.598-2.382-1.769-3.757h6.204A1.75 1.75 0 0023 15.25V3.75A1.75 1.75 0 0021.25 2h-5.5a.75.75 0 000 1.5h5.5a.25.25 0 01.25.25v11.5a.25.25 0 01-.25.25H2.75a.25.25 0 01-.25-.25V3.75zM10.463 17c-.126 1.266-.564 2.445-1.223 3.5h5.52c-.66-1.055-1.098-2.234-1.223-3.5h-3.074z"/></svg>
